X:218
T: NUN IST DIE ZEIT UND STUNDE
N: E0795
O: Europa, Mitteleuropa, Deutschland, Hessen, Oberhessen; Wetterau
R: Abschieds - Lied, Auswanderung
M: 4/4
L: 1/16
K: C
G,4 | C6G,2E,2C,2G,3F, | G,8z4
B,2C2 | D6C2B,2A,2G,2E2 | C8z2
G,2A,2B,2 | C4E4D4G4 | E8z2
D2C2B,2 | A,4F2D2E4D4 | C8z2
G,2A,2B,2 | C4E4D4G4 | E8-E2
D2C2B,2 | A,4F2D2E4D4 | C8z4

@@@ Tune index: 4531
